usr/share/icons/biglinux-icons-material/scalable/mimetypes/text-x-c++hdr.svg

<svg width="24" height="24" viewBox="0 0 24 24" fill="none" xmlns="http://www.w3.org/2000/svg">
<rect x="1" y="1" width="22" height="22" rx="6.6" fill="url(#paint0_radial_21_1754)"/>
<path d="M5 4.27119V20H7.98944C8.00024 17.9503 7.96592 15.8997 8.01015 13.8506C8.08425 12.888 8.1427 11.662 9.14978 11.1348C9.70411 10.8447 10.4462 10.7741 11.0568 10.9546C11.9518 11.2193 12.102 12.2695 12.1403 13.0261C12.1549 15.3506 12.1426 17.6754 12.1466 20H15.1243C15.118 17.3877 15.1468 14.7476 15.1243 12.1355C15.0934 10.8229 14.5031 9.38533 13.1243 8.78634C11.9458 8.27451 10.5506 8.42727 9.35469 8.84007C8.79005 9.03496 8.01085 9.98333 8.01085 9.98333C8.00365 8.07928 7.99667 6.17533 7.98946 4.27106L5 4.27119Z" fill="#95458D"/>
<path opacity="0.75" d="M11.8535 4V5.62712H10.0669V6.16949H11.8535V7.79661H12.449V6.16949H14.2357V5.62712H12.449V4H11.8535Z" fill="#95458D"/>
<path opacity="0.75" d="M16.6178 4V5.62712H14.8312V6.16949H16.6178V7.79661H17.2134V6.16949H19V5.62712H17.2134V4H16.6178Z" fill="#95458D"/>
<defs>
<radialGradient id="paint0_radial_21_1754" cx="0" cy="0" r="1" gradientUnits="userSpaceOnUse" gradientTransform="translate(17.5 1) rotate(116.565) scale(24.5967)">
<stop stop-color="#F4F4F4"/>
<stop offset="1" stop-color="#BBBBBB"/>
</radialGradient>
</defs>
</svg>

<svg xmlns="http://www.w3.org/2000/svg" width="24" height="24" fill="none"><rect width="22" height="22" x="1" y="1" fill="url(#a)" rx="6.6"/><path fill="#95458D" d="M5 4.271V20h2.99c.01-2.05-.024-4.1.02-6.15.074-.962.133-2.188 1.14-2.715a2.67 2.67 0 0 1 1.907-.18c.895.264 1.045 1.315 1.083 2.071.015 2.325.003 4.65.007 6.974h2.977c-.006-2.612.023-5.252 0-7.864-.03-1.313-.62-2.75-2-3.35-1.178-.511-2.573-.359-3.77.054-.564.195-1.343 1.143-1.343 1.143l-.022-5.712H5Z"/><path fill="#95458D" d="M11.854 4v1.627h-1.787v.542h1.787v1.628h.595V6.169h1.787v-.542h-1.787V4h-.595ZM16.618 4v1.627H14.83v.542h1.787v1.628h.595V6.169H19v-.542h-1.787V4h-.595Z" opacity=".75"/><defs><radialGradient id="a" cx="0" cy="0" r="1" gradientTransform="rotate(116.565 8.441 5.908) scale(24.5967)" gradientUnits="userSpaceOnUse"><stop stop-color="#F4F4F4"/><stop offset="1" stop-color="#BBB"/></radialGradient></defs></svg>
